assets/img/dashes.svg

<svg fill="none" height="186" viewBox="0 0 186 186" width="186" xmlns="http://www.w3.org/2000/svg"><path clip-rule="evenodd" d="m84.6019 1.39605c2.8293-.26211 5.6953-.39605 8.5921-.39605 2.8967 0 5.7627.13394 8.592.39605 1.1.1019 1.909 1.07611 1.807 2.17597s-1.076 1.90887-2.176 1.80698c-2.7068-.25077-5.4496-.379-8.223-.379s-5.5163.12823-8.2231.379c-1.0999.10189-2.0741-.70712-2.176-1.80698s.7072-2.07407 1.807-2.17597zm44.3111 8.94615c.461-1.00366 1.649-1.44343 2.652-.98223 5.242 2.40843 10.217 5.29483 14.872 8.60303.9.64 1.111 1.8886.471 2.7889s-1.888 1.1114-2.789.4714c-4.452-3.1648-9.211-5.9255-14.224-8.2287-1.003-.4612-1.443-1.6487-.982-2.6524zm-71.438 0c.4612 1.0037.0215 2.1912-.9822 2.6524-5.0124 2.3032-9.7716 5.0639-14.224 8.2287-.9003.64-2.149.4289-2.7889-.4714s-.4289-2.1489.4714-2.7888c4.6542-3.3083 9.6299-6.1947 14.8713-8.60313 1.0037-.4612 2.1912-.02143 2.6524.98223zm107.967 28.9437c.9-.6399 2.149-.4289 2.789.4714 3.308 4.6543 6.195 9.63 8.603 14.8714.461 1.0036.021 2.1912-.982 2.6523-1.004.4612-2.191.0215-2.653-.9822-2.303-5.0124-5.064-9.7716-8.228-14.224-.64-.9003-.429-2.1489.471-2.7889zm-144.4961 0c.9003.64 1.1114 1.8886.4714 2.7889-3.1648 4.4525-5.9255 9.2116-8.2287 14.224-.4612 1.0037-1.6487 1.4434-2.6524.9823-1.00367-.4612-1.44344-1.6488-.98225-2.6524 2.40845-5.2414 5.29485-10.2171 8.60305-14.8714.64-.9003 1.8886-1.1113 2.7889-.4714zm161.6761 43.315c1.1-.1018 2.074.7072 2.176 1.807.262 2.8294.396 5.6954.396 8.5921s-.134 5.7627-.396 8.592c-.102 1.1-1.076 1.909-2.176 1.807s-1.909-1.076-1.807-2.176c.251-2.7068.379-5.4496.379-8.223s-.128-5.5162-.379-8.2231c-.102-1.0998.707-2.0741 1.807-2.176zm-178.85599.0001c1.09985.1019 1.90887 1.0761 1.80697 2.1759-.25076 2.7069-.379 5.4497-.379 8.2231s.12824 5.5162.379 8.223c.1019 1.1-.70711 2.074-1.80697 2.176s-2.07408-.707-2.17597-1.807c-.26212-2.8293-.39606-5.6953-.39606-8.592s.13394-5.7627.39606-8.5921c.10189-1.0998 1.07611-1.9088 2.17597-1.8069zm6.77019 46.118c1.0037-.461 2.1912-.021 2.6524.982 2.3032 5.013 5.0639 9.772 8.2287 14.224.64.901.4289 2.149-.4714 2.789s-2.1489.429-2.7889-.471c-3.3082-4.655-6.1946-9.63-8.60304-14.872-.4612-1.003-.02143-2.191.98224-2.652zm165.3158 0c1.003.461 1.443 1.649.982 2.652-2.408 5.242-5.295 10.217-8.603 14.872-.64.9-1.889 1.111-2.789.471s-1.111-1.888-.471-2.789c3.164-4.452 5.925-9.211 8.228-14.224.462-1.003 1.649-1.443 2.653-.982zm-136.3721 36.529c.64-.9 1.8886-1.111 2.7889-.471 4.4524 3.165 9.2116 5.925 14.224 8.228 1.0037.462 1.4434 1.649.9822 2.653-.4612 1.003-1.6487 1.443-2.6524.982-5.2414-2.408-10.217-5.295-14.8713-8.603-.9003-.64-1.1113-1.889-.4714-2.789zm107.4281 0c.64.9.429 2.149-.471 2.789-4.655 3.308-9.63 6.195-14.872 8.603-1.003.461-2.191.021-2.652-.982-.461-1.004-.021-2.191.982-2.653 5.013-2.303 9.772-5.063 14.224-8.228.901-.64 2.149-.429 2.789.471zm-64.1131 17.18c.1019-1.1 1.0761-1.909 2.176-1.807 2.7068.251 5.4497.379 8.2231.379s5.5162-.128 8.223-.379c1.1-.102 2.074.707 2.176 1.807s-.707 2.074-1.807 2.176c-2.8293.262-5.6953.396-8.592.396-2.8968 0-5.7627-.134-8.5921-.396-1.0998-.102-1.9089-1.076-1.807-2.176z" fill="#fff" fill-rule="evenodd" stroke="#fff" stroke-linecap="round"/></svg>

<svg width="186" height="186" viewBox="0 0 186 186" fill="none" xmlns="http://www.w3.org/2000/svg">
<path fill-rule="evenodd" clip-rule="evenodd" d="M84.6019 1.39605C87.4312 1.13394 90.2972 1 93.194 1C96.0907 1 98.9567 1.13394 101.786 1.39605C102.886 1.49795 103.695 2.47216 103.593 3.57202C103.491 4.67188 102.517 5.48089 101.417 5.379C98.7102 5.12823 95.9674 5 93.194 5C90.4206 5 87.6777 5.12823 84.9709 5.379C83.871 5.48089 82.8968 4.67188 82.7949 3.57202C82.693 2.47216 83.5021 1.49795 84.6019 1.39605ZM128.913 10.3422C129.374 9.33854 130.562 8.89877 131.565 9.35997C136.807 11.7684 141.782 14.6548 146.437 17.963C147.337 18.603 147.548 19.8516 146.908 20.7519C146.268 21.6522 145.02 21.8633 144.119 21.2233C139.667 18.0585 134.908 15.2978 129.895 12.9946C128.892 12.5334 128.452 11.3459 128.913 10.3422ZM57.475 10.3422C57.9362 11.3459 57.4965 12.5334 56.4928 12.9946C51.4804 15.2978 46.7212 18.0585 42.2688 21.2233C41.3685 21.8633 40.1198 21.6522 39.4799 20.7519C38.84 19.8516 39.051 18.603 39.9513 17.9631C44.6055 14.6548 49.5812 11.7684 54.8226 9.35997C55.8263 8.89877 57.0138 9.33854 57.475 10.3422ZM165.442 39.2859C166.342 38.646 167.591 38.857 168.231 39.7573C171.539 44.4116 174.426 49.3873 176.834 54.6287C177.295 55.6323 176.855 56.8199 175.852 57.281C174.848 57.7422 173.661 57.3025 173.199 56.2988C170.896 51.2864 168.135 46.5272 164.971 42.0748C164.331 41.1745 164.542 39.9259 165.442 39.2859ZM20.9459 39.2859C21.8462 39.9259 22.0573 41.1745 21.4173 42.0748C18.2525 46.5273 15.4918 51.2864 13.1886 56.2988C12.7274 57.3025 11.5399 57.7422 10.5362 57.2811C9.53253 56.8199 9.09276 55.6323 9.55395 54.6287C11.9624 49.3873 14.8488 44.4116 18.157 39.7573C18.797 38.857 20.0456 38.646 20.9459 39.2859ZM182.622 82.6009C183.722 82.4991 184.696 83.3081 184.798 84.4079C185.06 87.2373 185.194 90.1033 185.194 93C185.194 95.8967 185.06 98.7627 184.798 101.592C184.696 102.692 183.722 103.501 182.622 103.399C181.522 103.297 180.713 102.323 180.815 101.223C181.066 98.5162 181.194 95.7734 181.194 93C181.194 90.2266 181.066 87.4838 180.815 84.7769C180.713 83.6771 181.522 82.7028 182.622 82.6009ZM3.76601 82.601C4.86586 82.7029 5.67488 83.6771 5.57298 84.7769C5.32222 87.4838 5.19398 90.2266 5.19398 93C5.19398 95.7734 5.32222 98.5162 5.57298 101.223C5.67488 102.323 4.86587 103.297 3.76601 103.399C2.66615 103.501 1.69193 102.692 1.59004 101.592C1.32792 98.7627 1.19398 95.8967 1.19398 93C1.19398 90.1033 1.32792 87.2373 1.59004 84.4079C1.69193 83.3081 2.66615 82.4991 3.76601 82.601ZM10.5362 128.719C11.5399 128.258 12.7274 128.698 13.1886 129.701C15.4918 134.714 18.2525 139.473 21.4173 143.925C22.0573 144.826 21.8462 146.074 20.9459 146.714C20.0456 147.354 18.797 147.143 18.157 146.243C14.8488 141.588 11.9624 136.613 9.55396 131.371C9.09276 130.368 9.53253 129.18 10.5362 128.719ZM175.852 128.719C176.855 129.18 177.295 130.368 176.834 131.371C174.426 136.613 171.539 141.588 168.231 146.243C167.591 147.143 166.342 147.354 165.442 146.714C164.542 146.074 164.331 144.826 164.971 143.925C168.135 139.473 170.896 134.714 173.199 129.701C173.661 128.698 174.848 128.258 175.852 128.719ZM39.4799 165.248C40.1199 164.348 41.3685 164.137 42.2688 164.777C46.7212 167.942 51.4804 170.702 56.4928 173.005C57.4965 173.467 57.9362 174.654 57.475 175.658C57.0138 176.661 55.8263 177.101 54.8226 176.64C49.5812 174.232 44.6056 171.345 39.9513 168.037C39.051 167.397 38.84 166.148 39.4799 165.248ZM146.908 165.248C147.548 166.148 147.337 167.397 146.437 168.037C141.782 171.345 136.807 174.232 131.565 176.64C130.562 177.101 129.374 176.661 128.913 175.658C128.452 174.654 128.892 173.467 129.895 173.005C134.908 170.702 139.667 167.942 144.119 164.777C145.02 164.137 146.268 164.348 146.908 165.248ZM82.7949 182.428C82.8968 181.328 83.871 180.519 84.9709 180.621C87.6777 180.872 90.4206 181 93.194 181C95.9674 181 98.7102 180.872 101.417 180.621C102.517 180.519 103.491 181.328 103.593 182.428C103.695 183.528 102.886 184.502 101.786 184.604C98.9567 184.866 96.0907 185 93.194 185C90.2972 185 87.4313 184.866 84.6019 184.604C83.5021 184.502 82.693 183.528 82.7949 182.428Z" fill="white" stroke="white" stroke-linecap="round"/>
</svg>
